icons/scan-vertical-24.svg

<?xml version="1.0" encoding="UTF-8"?><svg id="icons" xmlns="http://www.w3.org/2000/svg" viewBox="0 0 24 24"><rect width="24" height="24" style="fill:none; stroke-width:0px;"/><path d="m22,20.68451c0,.7265-.58899,1.31549-1.31549,1.31549-.72656,0-1.31549-.58899-1.31549-1.31549,0-.06116.02673-.11346.03479-.17236l-6.90381-4.41205-8.5,5.8999v-5.66052l8.5-5.56458,7.5,4.80383v-3.52899l-7.5-4.85107-8.5,5.82855v-5.44421L12.5,2l7.50433,4.41852,2.51648.06793-1.52307.93805-.20587,1.87701-1.28333-2.12238-7.00854-4.18604-7.5,4.98828v3.33185l7.5-5.21246,8.5,5.56726v5.66095l-8.5-5.45221-7.5,4.96326v3.23206l7.5-5.07965,7.44366,4.63422c.21375-.15015.45984-.25769.74084-.25769.7265,0,1.31549.58899,1.31549,1.31555Z" style="stroke-width:0px;"/></svg>

<svg xmlns="http://www.w3.org/2000/svg" viewBox="0 0 24 24"><path fill="none" stroke-width="0" d="M0 0h24v24H0z"/><path d="M22 20.685a1.316 1.316 0 0 1-2.631 0c0-.062.027-.114.035-.173L12.5 16.1 4 22v-5.66l8.5-5.565 7.5 4.804v-3.53L12.5 7.2 4 13.027V7.583L12.5 2l7.504 4.419 2.517.067-1.523.938-.206 1.878-1.283-2.123L12.5 2.993 5 7.981v3.332l7.5-5.212 8.5 5.567v5.661l-8.5-5.452L5 16.84v3.232l7.5-5.08 7.444 4.635c.213-.15.46-.258.74-.258.727 0 1.316.589 1.316 1.316z" stroke-width="0"/></svg>
